Pods/ProtonCore-UIFoundations/libraries/UIFoundations/Sources/Assets.xcassets/Images/IconSet/ic-arrow-up-bounce-left.imageset/ic-arrow-up-bounce-left.svg

<svg width="24" height="24" viewBox="0 0 24 24" fill="none" xmlns="http://www.w3.org/2000/svg">
<path fill-rule="evenodd" clip-rule="evenodd" d="M7.06066 3L10.5533 3C10.9675 3 11.3033 2.66421 11.3033 2.25C11.3033 1.83579 10.9675 1.5 10.5533 1.5H5.55C4.9701 1.5 4.5 1.9701 4.5 2.55V7.5533C4.5 7.96751 4.83579 8.3033 5.25 8.3033C5.66421 8.3033 6 7.96751 6 7.5533L6 4.06066L13.409 11.4697C13.7019 11.7626 13.7019 12.2374 13.409 12.5303L4.71967 21.2197C4.42678 21.5126 4.42678 21.9874 4.71967 22.2803C5.01256 22.5732 5.48744 22.5732 5.78033 22.2803L14.4697 13.591C15.3483 12.7123 15.3484 11.2877 14.4697 10.409L7.06066 3ZM18.75 1.5C19.1642 1.5 19.5 1.83579 19.5 2.25V21.75C19.5 22.1642 19.1642 22.5 18.75 22.5C18.3358 22.5 18 22.1642 18 21.75V2.25C18 1.83579 18.3358 1.5 18.75 1.5Z" fill="#0C0C14"/>
</svg>

<svg xmlns="http://www.w3.org/2000/svg" width="24" height="24" viewBox="0 0 24 24">
  <g class="ic-arrow-up-bounce-left">
    <path fill-rule="evenodd" d="M7.06 3h3.493a.75.75 0 0 0 0-1.5H5.55c-.58 0-1.05.47-1.05 1.05v5.003a.75.75 0 0 0 1.5 0V4.061l7.409 7.409a.75.75 0 0 1 0 1.06l-8.69 8.69a.75.75 0 1 0 1.061 1.06l8.69-8.689a2.25 2.25 0 0 0 0-3.182L7.06 3Zm11.69-1.5a.75.75 0 0 1 .75.75v19.5a.75.75 0 0 1-1.5 0V2.25a.75.75 0 0 1 .75-.75Z" class="Icon"/>
  </g>
</svg>
